source/images/icon-troubleshoot.svg

<svg height="63" viewBox="0 0 63 63" width="63" xmlns="http://www.w3.org/2000/svg"><path d="m29.5703833 95.1672656c-.9923333.9323438-2.6043333.9323438-3.5988333 0-.9923333-.9303125-.9923333-2.4435937 0-3.371875.9945-.9323437 2.6065-.9323437 3.5988333 0 .9923334.9282813.9923334 2.4415625 0 3.371875m52.4745-4.5134375-21.4565-20.1134375c-.2015-.1909375-.4138333-.3595312-.637-.5159375l3.8025-3.7496875c.1928334-.1828125.3748334-.3778125.546-.5728125 5.044 1.7834375 10.9611667.7820313 15.0171667-3.0204687 2.9575-2.7726563 4.4525-6.6076563 4.0885-10.5279688-.0368333-.43875-.3531667-.820625-.7973333-.975-.4463334-.1523437-.9468334-.0467187-1.2826667.268125l-6.8726667 6.4451563-6.9636666-1.6473438-1.9716667-6.7315625 6.8726667-6.443125c.3358333-.316875.4463333-.7860937.286-1.2025-.1625-.4204687-.572-.7109375-1.0443334-.7495312-4.1751666-.3371875-8.2658333 1.0603125-11.2233333 3.8309375-4.0516667 3.7984375-5.1263333 9.3478125-3.2261667 14.0745312-.2036666.1645313-.4138333.3371875-.6131666.5240625l-5.59 5.0354688-10.2721667-9.628125c-.1321667-.1178125-.2665-.2254688-.4095-.3270313.1256667-.1970312.2426667-.4001562.3466667-.6114062 2.1731666.39 6.136-3.5689063 9.5051666-6.7234375l-9.8106666-9.1995313c-4.3853334 4.11125-7.592 6.87375-7.176 8.9090625-1.0031667.4590625-1.898 1.0176563-2.5328334 1.6148438l-1.3823333 1.2939062c-.8948333.8429688-1.4386667 1.8910938-1.6293333 2.9839063-.1343334.1421875-.2708334.2945312-.4051667.455l-.5178333.609375c-.013.01625-.0585.073125-.0693334.0873437l-.4658333.6114063c-.2925.3696875-.546.7617187-.7973333 1.145625-.0888334.1421875-.1841667.2864062-.2773334.430625-.0151666.0223437-.0281666.0426562-.0411666.0710937l-.208.365625c-.2535.43875-.5113334.8978125-.7345 1.4015625l-.0368334.0792188c-.26.5809375-.5351666 1.1882812-.7215 1.8301562l-.0953333.27625c-.0736667.2275-.1516667.4590625-.221.73125l-.1928333.8835938c-.1365.5545312-.1863334 1.0989062-.2275 1.5803125l-.0281667.3189062c-.0693333.5017188-.0498333.975-.0325 1.3934375.0086667.138125.013.2742188.0195.463125.0043333.0771875.0043333.1503125.0086667.2254688.0043333.1848437.0086666.398125.0455.6215625l.1213333.715c.026.1421875.0455.27625.065.40625.0498333.2904687.0953333.593125.1906667.8775l.5005 1.633125c.156.495625.6565.8246875 1.2046666.7901562.2946667-.0203125.5568334-.138125.7475-.3229687.1755-.1604688.2968334-.37375.3358334-.6195313l.2578333-1.6575c.0173333-.1340625.0801667-.325.1408333-.5301562.0455-.1401563.091-.2864063.1235-.4082813l.182-.6215625c.026-.0832812.0671667-.1645312.1083334-.2478125.0346666-.0771875.0715-.1564062.1061666-.2376562.0606667-.13.1191667-.2640625.1755-.398125.1148334-.2640625.2231667-.511875.3878334-.7576563.0693333-.1157812.1386666-.2254687.2036666-.34125.1711667-.2864062.3336667-.5585937.5286667-.7840625.013-.0121875.0216667-.0264062.0346667-.0426562l.4376666-.5667188c.0888334-.1035937.1928334-.2071875.2881667-.3046875.0715-.073125.1408333-.1442187.2253333-.2376562.2578334-.2925.559-.544375.8558334-.7942188l.1538333-.1340625c.2166667-.186875.4636667-.3635937.7301667-.5504687.1061666-.0771875.2123333-.1503125.3206666-.2214063.1278334-.0853125.26-.1645312.3856667-.2457812.2383333-.1503125.442-.2803125.6781667-.3940625l.52-.27625.5221666-.2417188c.182-.0873437.364-.1564062.5308334-.2173437.0975-.0426563.195-.0771875.286-.1157813.091-.0304687.1798333-.0609375.2621666-.0914062.1126667-.0365625.2123334-.073125.3423334-.1076563l.1386666-.0264062c.156.2335937.3358334.455.5503334.6601562l10.1616666 9.5225-21.684 19.5284375c-.0108333.0060938-.0173333.01625-.026.0223438-2.6996666 2.5309375-3.1416666 6.2339062-.442 8.7648437 2.6996667 2.5309379 6.4003334 1.8829688 9.1-.6479687.0108334-.0121875.0195-.0182813.0325-.0304688l19.1316667-18.8865625c.1126667.121875.2231667.2478125.3466667.3635938l21.4543333 20.1175c2.4028333 2.2506251 6.3006667 2.2506251 8.7078333 0 2.4006667-2.2567188 2.4006667-5.9109375 0-8.1635938" fill="#0093c9" fill-rule="evenodd" transform="translate(-21 -38)"/></svg>

<?xml version="1.0" encoding="UTF-8"?>
<svg width="63px" height="63px" viewBox="0 0 63 63" version="1.1" xmlns="http://www.w3.org/2000/svg" xmlns:xlink="http://www.w3.org/1999/xlink">
    <!-- Generator: Sketch 41.1 (35376) - https://www.sketchapp.com -->
    <title>icon-troubleshoot</title>
    <desc>Created with Sketch.</desc>
    <defs></defs>
    <g id="Updated-HOME" stroke="none" stroke-width="1" fill="none" fill-rule="evenodd">
        <g id="home-updated" transform="translate(-553.000000, -804.000000)" fill="#0093C9">
            <g id="Troubleshoot" transform="translate(532.000000, 766.000000)">
                <path d="M29.5703833,95.1672656 C28.57805,96.0996094 26.96605,96.0996094 25.97155,95.1672656 C24.9792167,94.2369531 24.9792167,92.7236719 25.97155,91.7953906 C26.96605,90.8630469 28.57805,90.8630469 29.5703833,91.7953906 C30.5627167,92.7236719 30.5627167,94.2369531 29.5703833,95.1672656 M82.0448833,90.6538281 L60.5883833,70.5403906 C60.3868833,70.3494531 60.17455,70.1808594 59.9513833,70.0244531 L63.7538833,66.2747656 C63.9467167,66.0919531 64.1287167,65.8969531 64.2998833,65.7019531 C69.3438833,67.4853906 75.26105,66.4839844 79.31705,62.6814844 C82.27455,59.9088281 83.76955,56.0738281 83.40555,52.1535156 C83.3687167,51.7147656 83.0523833,51.3328906 82.6082167,51.1785156 C82.1618833,51.0261719 81.6613833,51.1317969 81.32555,51.4466406 L74.4528833,57.8917969 L67.4892167,56.2444531 L65.51755,49.5128906 L72.3902167,43.0697656 C72.72605,42.7528906 72.83655,42.2836719 72.6762167,41.8672656 C72.5137167,41.4467969 72.1042167,41.1563281 71.6318833,41.1177344 C67.4567167,40.7805469 63.36605,42.1780469 60.40855,44.9486719 C56.3568833,48.7471094 55.2822167,54.2964844 57.1823833,59.0232031 C56.9787167,59.1877344 56.76855,59.3603906 56.5692167,59.5472656 L50.9792167,64.5827344 L40.70705,54.9546094 C40.5748833,54.8367969 40.44055,54.7291406 40.29755,54.6275781 C40.4232167,54.4305469 40.5402167,54.2274219 40.6442167,54.0161719 C42.8173833,54.4061719 46.7802167,50.4472656 50.1493833,47.2927344 L40.3387167,38.0932031 C35.9533833,42.2044531 32.7467167,44.9669531 33.1627167,47.0022656 C32.15955,47.4613281 31.2647167,48.0199219 30.6298833,48.6171094 L29.24755,49.9110156 C28.3527167,50.7539844 27.8088833,51.8021094 27.6182167,52.8949219 C27.4838833,53.0371094 27.3473833,53.1894531 27.21305,53.3499219 L26.6952167,53.9592969 C26.6822167,53.9755469 26.6367167,54.0324219 26.6258833,54.0466406 L26.16005,54.6580469 C25.86755,55.0277344 25.61405,55.4197656 25.3627167,55.8036719 C25.2738833,55.9458594 25.17855,56.0900781 25.0853833,56.2342969 C25.0702167,56.2566406 25.0572167,56.2769531 25.0442167,56.3053906 L24.8362167,56.6710156 C24.5827167,57.1097656 24.3248833,57.5688281 24.1017167,58.0725781 L24.0648833,58.1517969 C23.8048833,58.7327344 23.5297167,59.3400781 23.3433833,59.9819531 L23.24805,60.2582031 C23.1743833,60.4857031 23.0963833,60.7172656 23.02705,60.9894531 L22.8342167,61.8730469 C22.6977167,62.4275781 22.6478833,62.9719531 22.6067167,63.4533594 L22.57855,63.7722656 C22.5092167,64.2739844 22.5287167,64.7472656 22.54605,65.1657031 C22.5547167,65.3038281 22.55905,65.4399219 22.56555,65.6288281 C22.5698833,65.7060156 22.5698833,65.7791406 22.5742167,65.8542969 C22.57855,66.0391406 22.5828833,66.2524219 22.6197167,66.4758594 L22.74105,67.1908594 C22.76705,67.3330469 22.78655,67.4671094 22.80605,67.5971094 C22.8558833,67.8875781 22.9013833,68.1902344 22.9967167,68.4746094 L23.4972167,70.1077344 C23.6532167,70.6033594 24.1537167,70.9324219 24.7018833,70.8978906 C24.99655,70.8775781 25.2587167,70.7597656 25.4493833,70.5749219 C25.6248833,70.4144531 25.7462167,70.2011719 25.7852167,69.9553906 L26.04305,68.2978906 C26.0603833,68.1638281 26.1232167,67.9728906 26.1838833,67.7677344 C26.2293833,67.6275781 26.2748833,67.4813281 26.3073833,67.3594531 L26.4893833,66.7378906 C26.5153833,66.6546094 26.55655,66.5733594 26.5977167,66.4900781 C26.6323833,66.4128906 26.6692167,66.3336719 26.7038833,66.2524219 C26.76455,66.1224219 26.82305,65.9883594 26.8793833,65.8542969 C26.9942167,65.5902344 27.10255,65.3424219 27.2672167,65.0966406 C27.33655,64.9808594 27.4058833,64.8711719 27.4708833,64.7553906 C27.64205,64.4689844 27.80455,64.1967969 27.99955,63.9713281 C28.01255,63.9591406 28.0212167,63.9449219 28.0342167,63.9286719 L28.4718833,63.3619531 C28.5607167,63.2583594 28.6647167,63.1547656 28.76005,63.0572656 C28.83155,62.9841406 28.9008833,62.9130469 28.9853833,62.8196094 C29.2432167,62.5271094 29.5443833,62.2752344 29.8412167,62.0253906 L29.99505,61.8913281 C30.2117167,61.7044531 30.4587167,61.5277344 30.7252167,61.3408594 C30.8313833,61.2636719 30.93755,61.1905469 31.0458833,61.1194531 C31.1737167,61.0341406 31.3058833,60.9549219 31.43155,60.8736719 C31.6698833,60.7233594 31.87355,60.5933594 32.1097167,60.4796094 L32.6297167,60.2033594 L33.1518833,59.9616406 C33.3338833,59.8742969 33.5158833,59.8052344 33.6827167,59.7442969 C33.7802167,59.7016406 33.8777167,59.6671094 33.9687167,59.6285156 C34.0597167,59.5980469 34.14855,59.5675781 34.2308833,59.5371094 C34.34355,59.5005469 34.4432167,59.4639844 34.5732167,59.4294531 L34.7118833,59.4030469 C34.8678833,59.6366406 35.0477167,59.8580469 35.2622167,60.0632031 L45.4238833,69.5857031 L23.7398833,89.1141406 C23.72905,89.1202344 23.72255,89.1303906 23.7138833,89.1364844 C21.0142167,91.6674219 20.5722167,95.3703906 23.2718833,97.9013281 C25.97155,100.432266 29.6722167,99.7842969 32.3718833,97.2533594 C32.3827167,97.2411719 32.3913833,97.2350781 32.4043833,97.2228906 L51.53605,78.3363281 C51.6487167,78.4582031 51.7592167,78.5841406 51.8827167,78.6999219 L73.33705,98.8174219 C75.7398833,101.068047 79.6377167,101.068047 82.0448833,98.8174219 C84.44555,96.5607031 84.44555,92.9064844 82.0448833,90.6538281" id="icon-troubleshoot"></path>
            </g>
        </g>
    </g>
</svg>
